material/.icons/material/camera-switch-outline.svg

<svg xmlns="http://www.w3.org/2000/svg" viewBox="0 0 24 24"><path d="M20 4h-3.2L15 2H9L7.2 4H4c-1.1 0-2 .9-2 2v12c0 1.1.9 2 2 2h16c1.1 0 2-.9 2-2V6c0-1.1-.9-2-2-2M9.9 4h4.2l1.8 2H20v12H4V6h4.1m6.9 5H9V8.5L5.5 12 9 15.5V13h6v2.5l3.5-3.5L15 8.5V11z"/></svg>

<?xml version="1.0" encoding="UTF-8"?><!DOCTYPE svg PUBLIC "-//W3C//DTD SVG 1.1//EN" "http://www.w3.org/Graphics/SVG/1.1/DTD/svg11.dtd"><svg xmlns="http://www.w3.org/2000/svg" xmlns:xlink="http://www.w3.org/1999/xlink" version="1.1" id="mdi-camera-switch-outline" width="24" height="24" viewBox="0 0 24 24"><path d="M20 4H16.8L15 2H9L7.2 4H4C2.9 4 2 4.9 2 6V18C2 19.1 2.9 20 4 20H20C21.1 20 22 19.1 22 18V6C22 4.9 21.1 4 20 4M9.9 4H14.1L15.9 6H20V18H4V6H8.1M15 11H9V8.5L5.5 12L9 15.5V13H15V15.5L18.5 12L15 8.5V11Z" /></svg>
